assets/hashicorp/original.svg

<svg viewBox="0 0 24 24" xmlns="http://www.w3.org/2000/svg"><path d="m10.114 4.094-5.899 3.406v13.09l-3.549-2.048v-13.092l9.448-5.45zm3.772 13.37 3.549-2.049v-13.365l-3.55-2.05v10.426h-3.77v-3.89l-3.553 2.049v13.357l3.551 2.054v-10.397h3.772zm5.897-14.054v13.09l-5.897 3.405v4.095l9.448-5.45v-13.092l-3.551-2.05z"/></svg>

<svg xmlns="http://www.w3.org/2000/svg" viewBox="0 0 24 24"><title>HashiCorp</title><path d="M10.114 4.094 4.215 7.5v13.09L.666 18.542V5.45L10.114 0zm3.772 13.37 3.549-2.049V2.05L13.885 0v10.426h-3.77v-3.89L6.562 8.585v13.357l3.551 2.054V13.599h3.772zM19.783 3.41V16.5l-5.897 3.405V24l9.448-5.45V5.458l-3.551-2.05z"/></svg>
